X:1
T:The Unfortunate Man (2)
M:3/4
L:1/4
K:Bb
 f| f d3/2 d/2| d c B| d d d| f2 d| c2 c| c2 c/2c/2| c d e| f2 f/2f/2|\
 f d d| d c B| d c d| f2 d/2e/2| f f f| g- f f| e d c/2c/2| B2 B/2B/2|\
 F B c| d3-| d3-| d c d/2c/2| B c d| e3-| e2 d/2e/2| f f f/2f/2| g f f|\
 e d c| B2||

